X:94
T:Steyrer Tanz in G, nr. 61
C:traditionell
R:Steirer
A:Hallstatt, Salzkammergut
B:Corpus Musicae Popularis Austriacae (COMPA), 5.Band: J.M.Schmalnauer " Tanz Musik", Verlag Boehlau, Wien 1996
S:manuscript des Johann Michael Schmalnauer um 1820
N:im der quelle in G
Z:abc transcription Simon Wascher
F:http://simonwascher.info/TradArchiv/
M:3/4
L:1/8
K:G
V:1
%violino 1mo
Bd |\
cA f3 (c | Bd) g3 B | cAFDEF | G2 BdBd |\
cA f3 (c | Bd) g3 B | cAFDEF | G4 :|
|: Bd |\
cAfAdD | BdgBdD | cAFDEF | G2 BdBd |\
cAfAdD | BdgBdD | cAFDEF | G4 :|
V:2
%violino 2do
GB |\
AD c3 (A | GB) B3 G | AFDCA,C | B,DGBGB |\
AD c3 (A | GB) B3 G | AFDCA,C | B,4 :|
|: GB |\
ADcDAD | GBdDBD | AFDCA,C | B,DGBGB |\
ADcDAD | GBdDBD | AFDCA,C | B,4 :|
